X: 22
T:Staten Island - 2nd Part
M:C
L:1/8
C:James G-H
R:Hornpipe
K:D
fe|dAde f2 f2|fagf|fedA|d2 Bd d2 Ad|d2 c2 c2 d2|!
dAde f2 f2|fagf fede|f2 ed cdec|d2 [F2d2] [F2d2] :|| !
||: de|f2 df e2 ce|d2 Ad cAED|=C2 C2 EFGE|=C2 C2 EFG2|!
f2 df e2 ce|d2 AB cAEG|F2 AB cdec|d2 [F2d2] [F2d2]:||
